X:1
T: Come to your Tay
C:
R:Reel
Q: 232
K:D
M:4/4
L:1/8
|:d2 dc A2 Bc|d2 de fd ec|de dc A2 AB|=cA GE ED D2|
d2 dc A2 Bc|d2 de fd ec|de dc A2 AB|=cA GE ED D2|
d2 fd ad fd|ce Ae cA eA|d2 fd ad fd|fa ag fd ec|
d2 fd ad fd|c2 ec ge fg|ab ag fd ec|ea ag fd ec:|
